src/travel-places/transport-water/1F6E5.svg

<?xml version="1.0" encoding="UTF-8"?>
<svg id="emoji" xmlns="http://www.w3.org/2000/svg" viewBox="0 0 72 72">
  <g id="grid">
    <path d="m68,4v64H4V4h64m4-4H0v72h72V0Z" fill="#b3b3b3"/>
    <path d="m12.923,10.9583h46.1539c1.0621,0,1.9231.861,1.9231,1.9231h0v46.1538c0,1.0621-.861,1.9231-1.9231,1.9231H12.9231c-1.0621,0-1.9231-.861-1.9231-1.9231h0V12.8813c0-1.062.861-1.923,1.923-1.923h0Z" fill="none" stroke="#00a5ff" stroke-miterlimit="10" stroke-width=".1"/>
    <path d="m18.2537,4h35.4926c1.2447,0,2.2537,1.009,2.2537,2.2537v59.4926c0,1.2447-1.009,2.2537-2.2537,2.2537H18.2537c-1.2447,0-2.2537-1.009-2.2537-2.2537V6.2537c0-1.2447,1.009-2.2537,2.2537-2.2537Z" fill="none" stroke="#00a5ff" stroke-miterlimit="10" stroke-width=".1"/>
    <path d="m68,18.2537v35.4926c0,1.2447-1.009,2.2537-2.2537,2.2537H6.2537c-1.2447,0-2.2537-1.009-2.2537-2.2537V18.2537c0-1.2447,1.009-2.2537,2.2537-2.2537h59.4926c1.2447,0,2.2537,1.009,2.2537,2.2537Z" fill="none" stroke="#00a5ff" stroke-miterlimit="10" stroke-width=".1"/>
    <circle cx="36" cy="36" r="29" fill="none" stroke="#00a5ff" stroke-miterlimit="10" stroke-width=".1"/>
  </g>
  <g id="color">
    <path d="m39,36.09v5.55l-15.78-1.03c.01-.02.02-.04.05-.07,1.12-1.34,5.87-6.26,14.83-5.45.51.05.9.49.9,1Z" fill="#9b9b9a"/>
    <path d="m65,38.93v4.43c0,.55-.5063,1-1.125,1h-3.375v-.43c0-.52-.495-.96-1.125-.99l-3.375-.2v-3.81c0-.55.5063-1,1.125-1h6.75c.6187,0,1.125.45,1.125,1Z" fill="#3f3f3f"/>
    <path d="m60,43.93v6.07H21.45s-2.2-1.54-4.62-5c-.61-.86-1.23-1.84-1.83-2.94-.1-.16-.18-.32-.27-.49-.37-.7.21-1.51,1.03-1.45l.62.04,6.84.45,15.78,1.03,17,1.1,3,.2c.56.03,1,.47,1,.99Z" fill="#d0cfce"/>
    <polyline points="67.9643 48.1099 68.0417 68.0208 4.0417 68.0208 4.0417 48.2561" fill="none"/>
    <path d="m68,47.0208h-.9583c-8,0-10,3-15,3s-10-3-16-3-10,3-16,3-12-3-15-3h-1v21h64v-10.5h-.0417v-10.5Z" fill="#92d3f5"/>
  </g>
  <g id="line">
    <path d="m39,36.09v5.55l-15.78-1.03c.01-.02.02-.04.05-.07,1.12-1.34,5.87-6.26,14.83-5.45.51.05.9.49.9,1Z" fill="none" stroke="#000" stroke-linecap="round" stroke-linejoin="round" stroke-width="2"/>
    <line x1="63" y1="44.36" x2="63" y2="47" fill="none" stroke="#000" stroke-linecap="round" stroke-linejoin="round" stroke-width="2"/>
    <path d="m65,38.93v4.43c0,.55-.5063,1-1.125,1h-3.375v-.43c0-.52-.495-.96-1.125-.99l-3.375-.2v-3.81c0-.55.5063-1,1.125-1h6.75c.6187,0,1.125.45,1.125,1Z" fill="none" stroke="#000" stroke-linecap="round" stroke-linejoin="round" stroke-width="2.1213"/>
    <path d="m21.45,50s-2.2-1.54-4.62-5c-.61-.86-1.23-1.84-1.83-2.94-.1-.16-.18-.32-.27-.49-.37-.7.21-1.51,1.03-1.45l.62.04,6.84.45,15.78,1.03,17,1.1,3,.2c.56.03,1,.47,1,.99v3.0908" fill="none" stroke="#000" stroke-linecap="round" stroke-linejoin="round" stroke-width="2"/>
    <path d="m5.0417,47.0208c3,0,9,3,15,3s10-3,16-3,11,3,16,3,7-3,15-3" fill="none" stroke="#000" stroke-linecap="round" stroke-linejoin="round" stroke-width="2"/>
  </g>
</svg>

<svg id="emoji" viewBox="0 0 72 72" version="1.1" xmlns="http://www.w3.org/2000/svg">
  <g id="grid">
    <path fill="#B3B3B3" d="M68,4v64H4V4H68 M72,0H0v72h72V0z"/>
    <path fill="none" stroke="#00A5FF" stroke-miterlimit="10" stroke-width="0.1" d="M12.923,10.9583h46.1539 c1.0621,0,1.9231,0.861,1.9231,1.9231l0,0v46.1538c0,1.0621-0.861,1.9231-1.9231,1.9231H12.9231 c-1.0621,0-1.9231-0.861-1.9231-1.9231l0,0V12.8813C11,11.8193,11.861,10.9583,12.923,10.9583L12.923,10.9583z"/>
    <path fill="none" stroke="#00A5FF" stroke-miterlimit="10" stroke-width="0.1" d="M18.2537,4h35.4926C54.991,4,56,5.009,56,6.2537 v59.4926C56,66.991,54.991,68,53.7463,68H18.2537C17.009,68,16,66.991,16,65.7463V6.2537C16,5.009,17.009,4,18.2537,4z"/>
    <path fill="none" stroke="#00A5FF" stroke-miterlimit="10" stroke-width="0.1" d="M68,18.2537v35.4926 C68,54.991,66.991,56,65.7463,56H6.2537C5.009,56,4,54.991,4,53.7463V18.2537C4,17.009,5.009,16,6.2537,16h59.4926 C66.991,16,68,17.009,68,18.2537z"/>
    <circle cx="36" cy="36" r="29" fill="none" stroke="#00A5FF" stroke-miterlimit="10" stroke-width="0.1"/>
  </g>
  <g id="color">
    <path fill="#9B9B9A" d="M39,36.09v5.55l-15.78-1.03c0.01-0.02,0.02-0.04,0.05-0.07c1.12-1.34,5.87-6.26,14.83-5.45 C38.61,35.14,39,35.58,39,36.09z"/>
    <path fill="#3F3F3F" d="M65,38.93v4.43c0,0.55-0.5063,1-1.125,1H60.5v-0.43c0-0.52-0.495-0.96-1.125-0.99L56,42.74v-3.81 c0-0.55,0.5063-1,1.125-1h6.75C64.4937,37.93,65,38.38,65,38.93z"/>
    <path fill="#D0CFCE" d="M60,43.93V50H21.45c0,0-2.2-1.54-4.62-5c-0.61-0.86-1.23-1.84-1.83-2.94c-0.1-0.16-0.18-0.32-0.27-0.49 c-0.37-0.7,0.21-1.51,1.03-1.45l0.62,0.04l6.84,0.45L39,41.64l17,1.1l3,0.2C59.56,42.97,60,43.41,60,43.93z"/>
    <polyline fill="none" points="69.0417,48.2561 68.0417,68.0208 4.0417,68.0208 4.0417,48.2561"/>
    <path fill="#92D3F5" d="M68,47.0208h-0.9583c-8,0-10,3-15,3s-10-3-16-3s-10,3-16,3s-12-3-15-3h-1v21h64v-10.5H68V47.0208z"/>
  </g>
  <g id="hair"/>
  <g id="skin"/>
  <g id="skin-shadow"/>
  <g id="line">
    <path fill="none" stroke="#000000" stroke-linecap="round" stroke-linejoin="round" stroke-miterlimit="10" stroke-width="2" d="M39,36.09v5.55l-15.78-1.03c0.01-0.02,0.02-0.04,0.05-0.07c1.12-1.34,5.87-6.26,14.83-5.45C38.61,35.14,39,35.58,39,36.09z"/>
    <line x1="63" x2="63" y1="44.36" y2="47" fill="none" stroke="#000000" stroke-linecap="round" stroke-linejoin="round" stroke-miterlimit="10" stroke-width="2"/>
    <path fill="none" stroke="#000000" stroke-linecap="round" stroke-linejoin="round" stroke-miterlimit="10" stroke-width="2.1213" d="M65,38.93v4.43c0,0.55-0.5063,1-1.125,1H60.5v-0.43c0-0.52-0.495-0.96-1.125-0.99L56,42.74v-3.81c0-0.55,0.5063-1,1.125-1h6.75 C64.4937,37.93,65,38.38,65,38.93z"/>
    <path fill="none" stroke="#000000" stroke-linecap="round" stroke-linejoin="round" stroke-miterlimit="10" stroke-width="2" d="M21.45,50c0,0-2.2-1.54-4.62-5c-0.61-0.86-1.23-1.84-1.83-2.94c-0.1-0.16-0.18-0.32-0.27-0.49c-0.37-0.7,0.21-1.51,1.03-1.45 l0.62,0.04l6.84,0.45L39,41.64l17,1.1l3,0.2c0.56,0.03,1,0.47,1,0.99v3.0908"/>
    <path fill="none" stroke="#000000" stroke-linecap="round" stroke-linejoin="round" stroke-miterlimit="10" stroke-width="2" d="M5.0417,47.0208c3,0,9,3,15,3s10-3,16-3s11,3,16,3s7-3,15-3"/>
  </g>
</svg>
